!!!!SEGMENT: pl-sa--440-a-viii-80_anonim--domine-non-sum-dignus.krn
!!!cenid: 17xx:1321
!!!COM: Anonim
!!!COM-rismID: pe30004985
!!!CDT:
!!!CNT:
!!!OTL: Domine non sum dignus
!!!PDT:
!!!AGN: Sacred
!!!SMS-siglum: PL-SA
!!!SMS-shelfmark: 440/A VIII 80
!!!SMS-shelfwork: W
!!!SMS-variant:
!!!SMS-altvar:
!!!NIFC-rismSourceID: 1001030047
!!!NIFC-islandoraID:
!!!URL-pdf-islandora:
!!!URL-scan: https://bc.bdsandomierz.pl/dlibra/publication/1409/edition/1377/content @EN{Scan in the Sandomierz Diocese Digital Library} @PL{Skany w portalu Cyfrowa Biblioteka Diecezjalna w Sandomierzu}
!!!ONB-nifc:
!!!AIN: 1 organ 2 violn 1 vox
!!!key:
**kern	**fba	**kern	**kern	**dynam	**kern	**text
*part4	*	*part3	*part2	*part2	*part1	*part1
*	*	*group1	*group1	*	*	*
*staff4	*	*staff3	*staff2	*	*staff1	*staff1
*Iorgan	*	*Ivioln	*Ivioln	*	*Ivox	*
*I"[Baſso. Continuopro Organo. Fundamento]	*	*I"Violino 2do	*I"Violino 1mo.	*	*I"Canto Solo	*
*I'b.c.	*	*I'vl II	*I'vl I	*	*I'S	*
*clefF4	*	*clefG2	*clefG2	*	*clefC1	*
*k[b-]	*	*k[b-]	*k[b-]	*	*k[b-]	*
*d:	*	*d:	*d:	*	*d:	*
*M2/2	*	*M2/2	*M2/2	*	*M2/2	*
*met(c|)	*	*met(c|)	*met(c|)	*	*met(c|)	*
*	*	*Xtuplet	*Xtuplet	*below	*	*
!LO:TX:b:t=Domine non Sum dignus	!	!	!LO:TX:b:t=D(omine) n(on) sum dignus.	!	!	!
8D/	.	8a/	32d/LLL	.	8r	.
.	.	.	(32e/	.	.	.
.	.	.	80f/L	.	.	.
.	.	.	80g/	.	.	.
.	.	.	80a/)	.	.	.
.	.	.	80b-/	.	.	.
.	.	.	80cc/JJJJ	.	.	.
=1	=1	=1	=1	=1	=1	=1
4D/	.	4dd\	8dd\L	.	00r	.
.	.	.	8a\	.	.	.
4r	.	4r	8dd\	.	.	.
.	.	.	8ee\J	.	.	.
4D/	.	8dd\L	8ff\L	.	.	.
.	.	8a\	8dd\	.	.	.
4r	.	8dd\	8ff\	.	.	.
.	.	8ee\J	8gg\J	.	.	.
=2	=2	=2	=2	=2	=2	=2
8F\L	.	4.ff\	4.aa\	p	.	.
16F\L	.	.	.	.	.	.
16G\JJ	.	.	.	.	.	.
8A\L	.	.	.	.	.	.
!	!	!	!LO:TX:t=P:problem=klamra łukowa	!	!	!
8F\J	.	24ee\LL	24gg\LL	.	.	.
.	.	24dd\	24ff\	.	.	.
.	.	24cc#X\JJ	24ee\JJ	.	.	.
8C/L	.	4.ee\	4.gg\	.	.	.
16C/L	.	.	.	.	.	.
16D/JJ	.	.	.	.	.	.
8E/L	.	.	.	.	.	.
!	!	!	!LO:TX:t=P:problem=klamra łukowa	!	!	!
8C/J	.	24ee\LL	24gg\LL	.	.	.
.	.	24dd\	24ff\	.	.	.
.	.	24cc#X\JJ	24ee\JJ	.	.	.
=3	=3	=3	=3	=3	=3	=3
8D/L	.	16dd\LL	16dd\LL	.	.	.
.	.	16cc#X\	16ee\	.	.	.
8C#X/	.	16dd\	16ff\	.	.	.
.	.	16ee\JJ	16gg\JJ	.	.	.
!	!	!	!LO:TX:t=P:problem=mixed beam	!	!	!
!	!	!LO:TX:t=P:problem=mixed beam	!	!	!	!
8D/	.	16ff\LL	16aa\LL	f	.	.
.	.	16a/	16a/	.	.	.
8AA/J	#	16a/	16a/	.	.	.
.	.	16a/JJ	16a/JJ	.	.	.
!	!	!LO:TX:t=P:problem=mixed beam	!LO:TX:t=P:problem=mixed beam	!	!	!
8D/L	.	16ee\LL	16gg\LL	.	.	.
.	.	16a/	16a/	.	.	.
8C#X/	.	16a/	16a/	.	.	.
.	.	16a/JJ	16a/JJ	.	.	.
!	!	!LO:TX:t=P:problem=mixed beam	!LO:TX:t=P:problem=mixed beam	!	!	!
8D/	.	16dd\LL	16ff\LL	.	.	.
.	.	16a/	16a/	.	.	.
8AA/J	#	16a/	16a/	.	.	.
.	.	16a/JJ	16a/JJ	.	.	.
!LO:LB:g=original	!	!	!	!	!	!
=4	=4	=4	=4	=4	=4	=4
8D/	.	16cc\LL	16ee\LL	.	.	.
.	.	16a\	16a\	.	.	.
8r	.	16a\	16a\	.	.	.
.	.	16a\JJ	16a\JJ	.	.	.
8C#X/	.	16dd\LL	16ff\LL	.	.	.
.	.	16a\	16a\	.	.	.
8r	.	16a\	16a\	.	.	.
.	.	16a\JJ	16a\JJ	.	.	.
8D/	.	16ee\LL	16gg\LL	.	.	.
.	.	16a\	16a\	.	.	.
8r	.	16a\	16a\	.	.	.
.	.	16a\JJ	16a\JJ	.	.	.
8AA/	#	16dd\LL	16ff\LL	.	.	.
.	.	16a\	16a\	.	.	.
8r	.	16a\	16a\	.	.	.
.	.	16a\JJ	16a\JJ	.	.	.
=5	=5	=5	=5	=5	=5	=5
8D/L	.	4ff\	4aa\	p	0r	.
8F/	.	.	.	.	.	.
8A/	.	16ff\LL	16aa\LL	.	.	.
.	.	16ee\	16gg\	.	.	.
8AA/J	.	16dd\	16ff\	.	.	.
.	.	16cc\JJ	16ee\JJ	.	.	.
!	!	!LO:LB:g=original	!LO:LB:g=original	!	!	!
16D\LL	.	16bn\LL	16dd\LL	.	.	.
16E\	.	16cc\	16ee\	.	.	.
16F\	.	16dd\	16ff\	.	.	.
16D\JJ	.	16b\JJ	16dd\JJ	.	.	.
4G\	.	4ee\	4gg\	.	.	.
=6	=6	=6	=6	=6	=6	=6
8C/L	.	4ee\	4gg\	.	.	.
8E/	.	.	.	.	.	.
8G/	.	16ee\LL	16gg\LL	.	.	.
.	.	16dd\	16ff\	.	.	.
8GG/J	.	16cc#X\	16ee\	.	.	.
.	.	16bn\JJ	16dd\JJ	.	.	.
8AA/L	.	16a\LL	16cc\LL	.	.	.
.	.	16b\	16dd\	.	.	.
8BB-/	.	16cc#X\	16ee\	.	.	.
.	.	16a\JJ	16cc\JJ	.	.	.
8C#X/	.	4ff\	4aa\	.	.	.
8AA/J	.	.	.	.	.	.
!LO:LB:g=original	!	!	!	!	!	!
=7	=7	=7	=7	=7	=7	=7
8D\L	.	8dd\L	16dd\LL	.	2r	.
.	.	.	16ee\	.	.	.
16F\L	.	8dd\J	16ff\	.	.	.
16G\JJ	.	.	16gg\JJ	.	.	.
!LO:TX:t=P:problem=mixed beam	!	!LO:TX:a:t=P:problem=# above	!LO:TX:t=P:problem=mixed beam	!	!	!
8A\L	4	8cc#X\L	8aa\L	f	.	.
8AA/J	3	8cc#\J	8a/J	.	.	.
!	!	!	!LO:TX:t=P:problem=mixed beam	!	!	!
4D/	.	4dd\	8dd\L	.	8dd\	Do-
.	.	.	8d/J	.	16a\	-mi-
.	.	.	.	.	16g\	-ne
4r	.	4r	4r	.	8f/	non
.	.	.	.	.	16a/LL	Sum
.	.	.	.	.	16g/JJ	.
=8	=8	=8	=8	=8	=8	=8
!	!	!	!LO:TX:a:t=1	!	!	!
16D\LL	.	1r	1r	.	16f/LL	di-
16E\	.	.	.	.	16e/JJ	.
16F\	.	.	.	.	4d/	-gn(us)
16G\JJ	.	.	.	.	.	.
!LO:TX:t=P:problem=mixed beam	!	!	!	!	!	!
16A\LL	.	.	.	.	.	.
16G\	.	.	.	.	.	.
16A\	.	.	.	.	8r	.
16AA/JJ	.	.	.	.	.	.
4D/	.	.	.	.	8dd\	Do-
.	.	.	.	.	16a\	-mi-
.	.	.	.	.	16g\	-ne
4r	.	.	.	.	8f/	n(on)
.	.	.	.	.	16a/LL	Sum
.	.	.	.	.	16g/JJ	.
=9	=9	=9	=9	=9	=9	=9
8D/L	.	8ff\L	8aa\L	.	16f/LL	di-
.	.	.	.	.	16e/JJ	.
8E/	.	8dd\	8ff\	.	4d/	-gnus
8F/	.	8a\	8dd\	.	.	.
8D/J	.	8ff\J	8aa\J	.	8r	.
16G\LL	.	8gg\L	8bb-\L	p	2r	.
16F\	.	.	.	.	.	.
16G\	.	16ff\L	16aa\L	.	.	.
16A\JJ	.	16gg\JJ	16bb-\JJ	.	.	.
16G\LL	.	4r	4r	.	.	.
16F\	.	.	.	.	.	.
16E\	.	.	.	.	.	.
16D\JJ	.	.	.	.	.	.
!LO:LB:g=original	!	!	!	!	!	!
=10	=10	=10	=10	=10	=10	=10
8C/L	.	8ee\L	8gg\L	.	00r	.
8D/	.	8cc\	8ee\	.	.	.
8E/	.	8a\	8cc\	.	.	.
8C/J	.	8f\J	8a\J	.	.	.
16F\LL	.	8ff\L	8aa\L	.	.	.
16E\	.	.	.	.	.	.
16F\	.	16ee\L	16gg\L	.	.	.
16G\JJ	.	16ff\JJ	16aa\JJ	.	.	.
16F\LL	.	4r	4r	.	.	.
16E\	.	.	.	.	.	.
16D\	.	.	.	.	.	.
16C#X\JJ	.	.	.	.	.	.
=11	=11	=11	=11	=11	=11	=11
.	.	.	8qgg/	.	.	.
8D/L	.	8dd\L	8ff\L	.	.	.
8E/	.	8a\	8dd\	.	.	.
8F/	.	8a\	8a\	.	.	.
8D/J	.	8dd\J	8dd\J	.	.	.
8AA/L	.	8cc#X\L	16ee\LL	f	.	.
!	!	!	!LO:SIC:v:s=16cc#	!	!	!
.	.	.	16cc\	.	.	.
8BBn/	.	8a\	16a\	.	.	.
!	!	!	!LO:SIC:v:s=16cc#	!	!	!
.	.	.	16cc\JJ	.	.	.
8C#X/	.	8a\	16ee\LL	.	.	.
!	!	!	!LO:SIC:v:s=16cc#	!	!	!
.	.	.	16cc\	.	.	.
8AA/J	.	8cc#\J	16a\	.	.	.
!	!	!	!LO:SIC:v:s=16cc#	!	!	!
.	.	.	16cc\JJ	.	.	.
!	!	!LO:LB:g=original	!	!	!	!
=12	=12	=12	=12	=12	=12	=12
8D/	.	16dd\LL	16ff\LL	.	.	.
.	.	16a\	16dd\	.	.	.
8r	.	16a\	16a\	.	.	.
.	.	16dd\JJ	16dd\JJ	.	.	.
!	!	!	!LO:LB:g=original	!	!	!
8C#X/	.	16dd\LL	16ff\LL	.	.	.
.	.	16a\	16dd\	.	.	.
8r	.	16a\	16a\	.	.	.
.	.	16dd\JJ	16dd\JJ	.	.	.
8D/	.	16cc#X\LL	16ee\LL	.	.	.
!	!	!	!LO:SIC:v:s=16cc#	!	!	!
.	.	16a\	16cc\	.	.	.
8r	.	16a\	16a\	.	.	.
!	!	!	!LO:SIC:v:s=16cc#	!	!	!
.	.	16cc#\JJ	16cc\JJ	.	.	.
8AA/	.	16cc#\LL	16ee\LL	.	.	.
!	!	!	!LO:SIC:v:s=16cc#	!	!	!
.	.	16a\	16cc\	.	.	.
8r	.	16a\	16a\	.	.	.
!	!	!	!LO:SIC:v:s=16cc#	!	!	!
.	.	16cc#\JJ	16cc\JJ	.	.	.
!LO:LB:g=original	!	!	!	!	!	!
=13	=13	=13	=13	=13	=13	=13
!LO:TX:t=P:problem=mixed beam	!	!LO:TX:t=P:problem=mixed beam	!LO:TX:t=P:problem=mixed beam	!	!	!
8FF/L	.	8a/L	8a/L	.	.	.
8F\	.	8ff\	8aa\	.	.	.
8F\	.	8ff\	8aa\	.	.	.
8F\J	.	8ff\J	8aa\J	.	.	.
8G\L	.	16gg\LL	16bb-\LL	.	.	.
.	.	16ff\	16aa\	.	.	.
8A\	.	16ee\	16gg\	.	.	.
.	.	16ff\JJ	16aa\JJ	.	.	.
8B-X\	.	16gg\LL	16bb-\LL	.	.	.
.	.	16ff\	16aa\	.	.	.
8G\J	.	16ee\	16gg\	.	.	.
.	.	16ff\JJ	16aa\JJ	.	.	.
=14	=14	=14	=14	=14	=14	=14
8C/L	.	8cc\L	8ee\L	.	00r	.
8D/	.	8ee\	8gg\	.	.	.
8E/	.	8ee\	8gg\	.	.	.
8C/J	.	8ee\J	8gg\J	.	.	.
8D/L	.	16ff\LL	16aa\LL	.	.	.
.	.	16ee\	16gg\	.	.	.
8C#X/	.	16dd\	16ff\	.	.	.
.	.	16ee\JJ	16gg\JJ	.	.	.
8D/	.	16ff\LL	16aa\LL	.	.	.
.	.	16ee\	16gg\	.	.	.
8AA/J	#	16dd\	16ff\	.	.	.
.	.	16ee\JJ	16gg\JJ	.	.	.
=15	=15	=15	=15	=15	=15	=15
!LO:TX:t=P:problem=mixed beam	!	!	!	!	!	!
8A\L	.	8a/L	8ee\L	.	.	.
.	6 4	.	.	.	.	.
8AA/J	5 3	8a/J	8a\J	.	.	.
8D/L	.	4ff\	4aa\	p	.	.
8F/J	6	.	.	.	.	.
8D/L	.	16ff\LL	16aa\LL	.	.	.
.	.	16ee\	16gg\	.	.	.
8E/	.	16dd\	16ff\	.	.	.
.	.	16cc\JJ	16ee\JJ	.	.	.
8F/	.	16bn\LL	16dd\LL	.	.	.
.	.	16cc\	16ee\	.	.	.
8D/J	.	16dd\	16ff\	.	.	.
.	.	16b\JJ	16dd\JJ	.	.	.
=16	=16	=16	=16	=16	=16	=16
8C/L	.	4ee\	4gg\	.	.	.
8E/J	.	.	.	.	.	.
16C/LL	.	16ee\LL	16gg\LL	.	.	.
16D/	.	16dd\	16ff\	.	.	.
16C/	.	16cc#X\	16ee\	.	.	.
!	!	!LO:TX:a:t=P:problem=♮ above	!	!	!	!
16BB-X/JJ	.	16bn\JJ	16dd\JJ	.	.	.
!	!	!LO:LB:g=original	!	!	!	!
!	!	!	!LO:SIC:v:s=16cc#	!	!	!
16AA/LL	.	16a\LL	16cc\LL	.	.	.
!LO:TX:b:t=P:problem=♮ below	!	!	!	!	!	!
16BBn/	.	16bn\	16dd\	.	.	.
16C#X/	.	16cc#X\	16ee\	.	.	.
16AA/JJ	.	16a\JJ	16a\JJ	.	.	.
!LO:LB:g=original	!	!	!	!	!	!
4D/	.	4dd\	4ff\	.	.	.
=17	=17	=17	=17	=17	=17	=17
4D/	.	16dd\LL	16ff\LL	.	.	.
.	.	16cc#X\	16ee\	.	.	.
.	.	16bn\	16dd\	.	.	.
!	!	!	!LO:SIC:v:s=16cc#	!	!	!
.	.	16a\JJ	16cc\JJ	.	.	.
!	!	!LO:TX:a:t=P:problem=# above	!	!	!	!
4AA/	#	8cc#X\L	8ee\L	.	.	.
.	.	8a\	8a\	.	.	.
8D/L	.	8dd\	8ff\	.	.	.
8AA/J	#	8a\J	8a\J	.	.	.
!	!	!	!LO:LB:g=original	!	!	!
16D/LL	.	16dd\LL	16dd\LL	.	.	.
16E/	.	16cc#X\	16ee\	.	.	.
16F/	.	16dd\	16ff\	.	.	.
16G/JJ	.	16ee\JJ	16gg\JJ	.	.	.
=18	=18	=18	=18	=18	=18	=18
!LO:TX:t=P:problem=mixed beam	!	!LO:TX:a:t=P:problem=# above	!LO:TX:t=P:problem=mixed beam	!	!	!
8A\L	#	8cc#X\L	8aa\L	.	2r	.
8AA/J	.	8cc#\J	8a/J	.	.	.
!	!	!LO:TX:t=P:problem=mixed beam	!LO:TX:t=P:problem=mixed beam	!	!	!
4D/	.	8dd\L	8dd\L	.	.	.
.	.	8d/J	8d/J	.	.	.
4D/	.	2r	2r	.	8a\	non
.	.	.	.	.	8dd\	n(on)
!	!	!	!	!	!LO:LB:g=original	!
4C#X/	.	.	.	.	8ee\	non
.	.	.	.	.	8gg\	n(on)
=19	=19	=19	=19	=19	=19	=19
!	!	!	!LO:TX:a:t=3	!	!	!
16D\LL	.	0r	0r	.	8ff\	n(on)
16E\	.	.	.	.	.	.
16F\	.	.	.	.	16ee\LL	Sum
16G\JJ	.	.	.	.	16dd\JJ	.
!LO:TX:t=P:problem=mixed beam	!	!	!	!	!	!
16A\LL	.	.	.	.	8ee\	dig-
16G\	.	.	.	.	.	.
16A\	.	.	.	.	8a\	-n(us)
16AA/JJ	.	.	.	.	.	.
4D/	.	.	.	.	8a\	n(on)
.	.	.	.	.	8dd\	n(on)
4C#X/	.	.	.	.	8ee\	n(on)
.	.	.	.	.	8gg\	n(on)
=20	=20	=20	=20	=20	=20	=20
16D\LL	.	.	.	.	8ff\	n(on)
16E\	.	.	.	.	.	.
16F\	.	.	.	.	16ee\LL	Sum
16G\JJ	.	.	.	.	16dd\JJ	.
!LO:TX:t=P:problem=mixed beam	!	!	!	!	!	!
16A\LL	.	.	.	.	8ee\	di-
16G\	.	.	.	.	.	.
16A\	.	.	.	.	8a\	-gnus
16AA/JJ	.	.	.	.	.	.
!LO:LB:g=original	!	!	!	!	!	!
8F\L	.	.	.	.	16aa\LL	ut
.	.	.	.	.	16gg\	.
8G\	.	.	.	.	16ff\	.
.	.	.	.	.	16gg\JJ	.
8A\	.	.	.	.	8aa\	in-
8F\J	.	.	.	.	16gg\LL	-tres
.	.	.	.	.	16ff\JJ	.
=21	=21	=21	=21	=21	=21	=21
8C/L	.	1r	1r	.	16gg\LL	me-
.	.	.	.	.	16ff\	.
8D/	.	.	.	.	16ee\	.
.	.	.	.	.	16ff\JJ	.
8E/	.	.	.	.	8gg\L	-um
8C/J	.	.	.	.	16ff\L	.
.	.	.	.	.	16ee\JJ	.
!LO:TX:t=P:problem=mixed beam	!	!	!	!	!	!
8D\L	.	.	.	.	8ff\L	me-
8G\	.	.	.	.	16ee\L	.
.	.	.	.	.	16dd\JJ	.
8A\	.	.	.	.	8.cc#X\	.
8AA/J	.	.	.	.	.	.
.	.	.	.	.	16cc#\	-um
!	!	!	!	!	!LO:LB:g=original	!
=22	=22	=22	=22	=22	=22	=22
!	!	!LO:TX:t=P:problem=mixed beam	!	!	!	!
4D/	.	16a/LL	16dd\LL	p	4dd\	cor
.	.	16dd\	16ff\	.	.	.
.	.	16gg\	16bb-\	.	.	.
.	.	16ff\JJ	16aa\JJ	.	.	.
4r	.	16ee\LL	16gg\LL	.	4r	.
.	.	16dd\	16ff\	.	.	.
.	.	16cc#X\	16ee\	.	.	.
.	.	16bn\JJ	16dd\JJ	.	.	.
!	!	!	!LO:SIC:v:s=16cc#	!	!	!
4C#X/	6	16a/LL	16cc\LL	.	2r	.
.	.	16cc#X/	16ee\	.	.	.
.	.	16ff/	16aa\	.	.	.
.	.	16ee/JJ	16gg\JJ	.	.	.
4r	.	16dd\LL	16ff\LL	.	.	.
.	.	16cc#\	16ee\	.	.	.
.	.	16bn\	16dd\	.	.	.
!	!	!	!LO:SIC:v:s=16cc#	!	!	!
.	.	16a\JJ	16cc\JJ	.	.	.
=23	=23	=23	=23	=23	=23	=23
!	!	!	!LO:SIC:v:s=16h	!	!	!
4GG/	7	16g/LL	16b-\LL	.	1r	.
.	.	16bn/	16dd\	.	.	.
.	.	16ee/	16gg\	.	.	.
.	.	16dd/JJ	16ff\JJ	.	.	.
!	!	!LO:LB:g=original	!	!	!	!
4r	.	16cc#X/LL	16ee\LL	.	.	.
.	.	16bn/	16dd\	.	.	.
!	!	!	!LO:SIC:v:s=16cc#	!	!	!
.	.	16a/	16cc\	.	.	.
!	!	!	!LO:SIC:v:s=16h	!	!	!
.	.	16g/JJ	16b-\JJ	.	.	.
!LO:TX:t=P:problem=mixed beam	!	!	!	!	!	!
8D\L	.	16dd\LL	16dd\LL	.	.	.
.	.	16cc#X\	16dd\	.	.	.
8G\	.	16dd\	16ff\	.	.	.
.	.	16ee\JJ	16aa\JJ	.	.	.
!	!	!	!LO:TX:t=P:problem=mixed beam	!	!	!
8A\	.	8ff\L	16aa\LL	.	.	.
.	.	.	16gg\	.	.	.
8AA/J	#	8cc#X\J	16aa\	.	.	.
.	.	.	16a/JJ	.	.	.
=24	=24	=24	=24	=24	=24	=24
!	!	!LO:TX:t=P:problem=mixed beam	!LO:TX:t=P:problem=mixed beam	!	!	!
8D/L	.	8dd\L	8dd\L	.	4r	.
8E/	.	8d/J	8d/J	.	.	.
8F/	.	4r	4r	.	8r	.
8D/J	.	.	.	.	8ff\	Sed
!LO:TX:t=P:problem=mixed beam	!	!	!	!	!	!
8AA/L	.	2r	2r	.	4ee\	tan-
8F\	.	.	.	.	.	.
8E\	.	.	.	.	8aa\	-tum
8C#X\J	.	.	.	.	16gg\LL	dic
.	.	.	.	.	16aa\JJ	.
!LO:LB:g=original	!	!	!	!	!	!
=25	=25	=25	=25	=25	=25	=25
8D/L	.	00r	00r	.	8ff\	Ver-
8E/	.	.	.	.	8dd\	-bu(m)
8F/	.	.	.	.	8r	.
8D/J	.	.	.	.	16ff\	et
.	.	.	.	.	16dd\	ſa-
4F\	.	.	.	.	4aa\	-na-
4r	.	.	.	.	16aa\LL	.
.	.	.	.	.	16aa\	.
.	.	.	.	.	16gg\	.
.	.	.	.	.	16ff\JJ	.
=26	=26	=26	=26	=26	=26	=26
4C/	.	.	.	.	4gg\	.
4r	.	.	.	.	16gg\LL	.
.	.	.	.	.	(16gg\	.
.	.	.	.	.	16ff\	.
.	.	.	.	.	16ee\JJ)	.
4D/	.	.	.	.	(4ff\	.
4r	.	.	.	.	16ff\LL	.
.	.	.	.	.	16ff\)	.
.	.	.	.	.	16ee\	.
.	.	.	.	.	16dd\JJ	.
=27	=27	=27	=27	=27	=27	=27
8AA/L	.	.	.	.	8.cc#X\	.
!LO:TX:b:t=P:problem=♮ below	!	!	!	!	!	!
8BBn/	.	.	.	.	.	.
.	.	.	.	.	16cc#\	-bi-
8C#X/	.	.	.	.	8dd\L	-tur
8AA/J	.	.	.	.	8ee\J	.
!	!	!	!	!	!LO:LB:g=original	!
16D\LL	.	.	.	.	8ff\	a-
16E\	.	.	.	.	.	.
16F\	.	.	.	.	16ee\	-ni-
16G\JJ	.	.	.	.	16dd\	-ma
!LO:TX:t=P:problem=mixed beam	!	!	!	!	!	!
16A\LL	.	.	.	.	4cc#X\	me-
16G\	.	.	.	.	.	.
16A\	.	.	.	.	.	.
16AA/JJ	.	.	.	.	.	.
=28	=28	=28	=28	=28	=28	=28
8D/L	.	.	.	.	4dd\	-a
8E/	.	.	.	.	.	.
8F/	.	.	.	.	8r	.
8D/J	.	.	.	.	16aa\	et
.	.	.	.	.	16dd\	ſa-
4F\	.	.	.	.	4aa\	-na-
4r	.	.	.	.	16aa\LL	.
.	.	.	.	.	16aa\	.
.	.	.	.	.	16gg\	.
.	.	.	.	.	16ff\JJ	.
=29	=29	=29	=29	=29	=29	=29
4C/	.	1r	0r	.	4gg\	.
4r	.	.	.	.	16gg\LL	.
.	.	.	.	.	(16gg\	.
.	.	.	.	.	16ff\	.
.	.	.	.	.	16ee\JJ)	.
4D/	.	.	.	.	4ff\	.
4r	.	.	.	.	16ff\LL	.
.	.	.	.	.	16ff\	.
.	.	.	.	.	16ee\	.
.	.	.	.	.	16dd\JJ	.
!LO:PB:g=original	!	!	!	!	!	!
=30	=30	=30	=30	=30	=30	=30
8AA/L	.	1r	.	.	8.cc#X\	.
8BBn/	.	.	.	.	.	.
.	.	.	.	.	16cc#\	-bi-
8C#X/	.	.	.	.	8dd\L	-tur
8AA/J	.	.	.	.	8ee\J	.
!LO:TX:t=P:problem=mixed beam	!	!	!	!	!	!
8D\L	.	.	.	.	8ff\	a-
8G\	.	.	.	.	16ee\	-ni-
.	.	.	.	.	16dd\	-ma
8A\	.	.	.	.	4cc#X\	me-
8AA/J	.	.	.	.	.	.
!	!	!	!LO:LB:g=original	!	!	!
=31	=31	=31	=31	=31	=31	=31
8D/	.	16ff\LL	16aa\LL	f	4dd\	-a
.	.	16ee\	16gg\	.	.	.
8r	.	16dd\	16ff\	.	.	.
.	.	16ee\JJ	16gg\JJ	.	.	.
8D/	.	16ff\LL	16aa\LL	.	4r	.
.	.	16ee\	16gg\	.	.	.
8r	.	16dd\	16ff\	.	.	.
.	.	16ee\JJ	16gg\JJ	.	.	.
!	!	!LO:TX:t=P:problem=mixed beam	!LO:TX:t=P:problem=mixed beam	!	!	!
8G\L	.	8gg\L	8bb-\L	.	2r	.
8A\	.	8e/	8g/	.	.	.
8B-X\	.	8gg\	8bb-\	.	.	.
8G\J	.	8e/J	8g/J	.	.	.
=32	=32	=32	=32	=32	=32	=32
8C/	.	16ee\LL	16gg\LL	.	00r	.
.	.	16dd\	16ff\	.	.	.
8r	.	16cc\	16ee\	.	.	.
.	.	16dd\JJ	16ff\JJ	.	.	.
8C/	.	16ee\LL	16gg\LL	.	.	.
.	.	16dd\	16ff\	.	.	.
8r	.	16cc\	16ee\	.	.	.
.	.	16dd\JJ	16ff\JJ	.	.	.
!	!	!LO:TX:t=P:problem=mixed beam	!LO:TX:t=P:problem=mixed beam	!	!	!
8F\L	.	8ff\L	8aa\L	.	.	.
8G\	.	8d/	8a/	.	.	.
8A\	.	8ff\	8aa\	.	.	.
8F\J	.	8d/J	8a/J	.	.	.
=33	=33	=33	=33	=33	=33	=33
16F\LL	.	16dd'\LL	16ff\LL	.	.	.
16E\	.	16cc#X\	16ee\	.	.	.
!	!	!LO:TX:a:t=P:problem=♮ above	!	!	!	!
16D\	.	16bn\	16dd\	.	.	.
16E\JJ	.	16cc#\JJ	16ee\JJ	.	.	.
!LO:LB:g=original	!	!	!	!	!	!
16F\LL	.	16dd\LL	16ff\LL	.	.	.
16E\	.	16cc#X\	16ee\	.	.	.
16D\	.	16bn\	16dd\	.	.	.
16E\JJ	.	16cc#X\JJ	16ee\JJ	.	.	.
!	!	!LO:PB:g=original	!	!	!	!
!LO:TX:t=P:problem=mixed beam	!	!	!	!	!	!
16A\LL	.	16cc#X\LL	16ee\LL	.	.	.
16AA/	.	16a\	16a\	.	.	.
16AA/	.	16a\	16a\	.	.	.
16AA/JJ	.	16a\JJ	16a\JJ	.	.	.
16C#X/LL	.	16ff\LL	16aa\LL	.	.	.
16AA/	.	16ff\	16aa\	.	.	.
16AA/	.	16ff\	16aa\	.	.	.
16AA/JJ	.	16ff\JJ	16aa\JJ	.	.	.
=34	=34	=34	=34	=34	=34	=34
8G\L	.	16gg\LL	16bb-\LL	.	.	.
.	.	16gg\	16bb-\	.	.	.
8A\	.	16gg\	16bb-\	.	.	.
.	.	16gg\JJ	16bb-\JJ	.	.	.
8B-X\	.	16gg\LL	16bb-\LL	.	.	.
.	.	16gg\	16bb-\	.	.	.
8G\J	.	16gg\	16bb-\	.	.	.
.	.	16gg\JJ	16bb-\JJ	.	.	.
16C/LL	.	16e/LL	16g/LL	.	.	.
16E/	.	16e/	16g/	.	.	.
16C/JJ	.	16e/	16g/	.	.	.
16r	.	16e/JJ	16g/JJ	.	.	.
16C/LL	.	16e/LL	16g/LL	.	.	.
16E/	.	16e/	16g/	.	.	.
16C/JJ	.	16e/	16g/	.	.	.
!	!	!	!LO:TX:b:t=Volti Subitto	!	!	!
16r	.	16e/JJ	16g/JJ	.	.	.
!	!	!	!LO:PB:g=original	!	!	!
=35	=35	=35	=35	=35	=35	=35
8F\L	.	16ff\LL	16aa\LL	.	.	.
.	.	16ff\	16aa\	.	.	.
8G\	.	16ff\	16aa\	.	.	.
.	.	16ff\JJ	16aa\JJ	.	.	.
8A\	.	16ff\LL	16aa\LL	.	.	.
.	.	16ff\	16aa\	.	.	.
8F\J	.	16ff\	16aa\	.	.	.
.	.	16ff\JJ	16aa\JJ	.	.	.
!	!	!	!LO:TX:t=P:problem=mixed beam	!	!	!
16D/LL	.	16ff\LL	16aa\LL	.	.	.
!	!	!LO:TX:t=P:problem=mixed beam	!	!	!	!
16F/	.	16d/	16f/	.	.	.
16D/JJ	.	16d/	16f/	.	.	.
16r	.	16d/JJ	16f/JJ	.	.	.
16D/LL	.	16d/LL	16f/LL	.	.	.
16F/	.	16d/	16f/	.	.	.
16D/JJ	.	16d/	16f/	.	.	.
16r	.	16d/JJ	16f/JJ	.	.	.
!LO:LB:g=original	!	!	!	!	!	!
=36	=36	=36	=36	=36	=36	=36
8C/L	.	16ee\LL	16gg\LL	.	00r	.
.	.	16ee\	16gg\	.	.	.
8D/	.	16ee\	16gg\	.	.	.
.	.	16ee\JJ	16gg\JJ	.	.	.
8E/	.	16ee\LL	16gg\LL	.	.	.
.	.	16ee\	16gg\	.	.	.
8C/J	.	16ee\	16gg\	.	.	.
.	.	16ee\JJ	16gg\JJ	.	.	.
8AA/	6 4	16dd\LL	16ff\LL	.	.	.
.	.	16a\	16a\	.	.	.
8r	.	16a\	16a\	.	.	.
.	.	16a\JJ	16a\JJ	.	.	.
8AA/	# 5	16cc#X\LL	16ee\LL	.	.	.
.	.	16a\	16a\	.	.	.
8r	.	16a\	16a\	.	.	.
.	.	16a\JJ	16a\JJ	.	.	.
!	!	!LO:LB:g=original	!	!	!	!
=37	=37	=37	=37	=37	=37	=37
16AA/LL	.	16dd\LL	16ff\LL	.	.	.
16C#X/	.	16a\	16a\	.	.	.
16AA/JJ	.	16a\	16a\	.	.	.
16r	.	16a\JJ	16a\JJ	.	.	.
16AA/LL	7	16ee\LL	16gg\LL	.	.	.
16C#X/	.	16a\	16a\	.	.	.
16AA/JJ	.	16a\	16a\	.	.	.
16r	.	16a\JJ	16a\JJ	.	.	.
8AA/	.	16ff\LL	16aa\LL	.	.	.
.	.	16a\	16a\	.	.	.
8r	.	16a\	16a\	.	.	.
.	.	16a\JJ	16a\JJ	.	.	.
8AA/	7	16ee\LL	16gg\LL	.	.	.
.	.	16a\	16a\	.	.	.
8r	.	16a\	16a\	.	.	.
.	.	16a\JJ	16a\JJ	.	.	.
=38	=38	=38	=38	=38	=38	=38
8D/L	.	8dd\L	16ff\LL	.	.	.
.	.	.	16dd\	.	.	.
8E/	.	8a\	16a\	.	.	.
.	.	.	16dd\JJ	.	.	.
8F/	.	8a\	16ff\LL	.	.	.
.	.	.	16dd\	.	.	.
8D/J	.	8dd\J	16a\	.	.	.
.	.	.	16dd\JJ	.	.	.
!	!	!	!LO:LB:g=original	!	!	!
8AA/L	.	8cc#X\L	16ee\LL	.	.	.
!	!	!	!LO:SIC:v:s=16cc#	!	!	!
.	.	.	16cc\	.	.	.
8BBn/	.	8a\	16a\	.	.	.
!	!	!	!LO:SIC:v:s=16cc#	!	!	!
.	.	.	16cc\JJ	.	.	.
8C#X/	.	8a\	16ee\LL	.	.	.
!	!	!	!LO:SIC:v:s=16cc#	!	!	!
.	.	.	16cc\	.	.	.
8AA/J	.	8cc#\J	16a\	.	.	.
!	!	!	!LO:SIC:v:s=16cc#	!	!	!
.	.	.	16cc\JJ	.	.	.
!LO:LB:g=original	!	!	!	!	!	!
=39	=39	=39	=39	=39	=39	=39
8D/L	.	16dd\LL	16ff\LL	.	.	.
.	.	16a\	16dd\	.	.	.
8E/	.	16a\	16a\	.	.	.
.	.	16dd\JJ	16dd\JJ	.	.	.
8F/	.	16dd\LL	16ff\LL	.	.	.
.	.	16a\	16dd\	.	.	.
8D/J	.	16a\	16a\	.	.	.
.	.	16dd\JJ	16dd\JJ	.	.	.
8AA/L	.	16cc#X\LL	16ee\LL	.	.	.
!	!	!	!LO:SIC:v:s=16cc#	!	!	!
.	.	16a\	16cc\	.	.	.
8BBn/	.	16a\	16a\	.	.	.
!	!	!	!LO:SIC:v:s=16cc#	!	!	!
.	.	16cc#\JJ	16cc\JJ	.	.	.
8C#X/	.	16cc#\LL	16ee\LL	.	.	.
!	!	!	!LO:SIC:v:s=16cc#	!	!	!
.	.	16a\	16cc\	.	.	.
8AA/J	.	16a\	16a\	.	.	.
!	!	!	!LO:SIC:v:s=16cc#	!	!	!
.	.	16cc#\JJ	16cc\JJ	.	.	.
=40	=40	=40	=40	=40	=40	=40
8D/L	.	8dd\L	8ff\L	.	0r	.
8E/	.	16a\L	16dd\L	.	.	.
.	.	16cc#X\JJ	16ee\JJ	.	.	.
8F/	.	8dd\L	8ff\L	.	.	.
8C#X/J	5	8ee\J	8gg\J	.	.	.
!	!	!LO:TX:t=P:problem=mixed beam	!LO:TX:t=P:problem=mixed beam	!	!	!
8F\L	.	8ff\L	8aa\L	.	.	.
8G\	.	8a/J	8a/J	.	.	.
8A\	.	8r	8r	.	.	.
8F\J	.	8ff\	8aa\	.	.	.
=41	=41	=41	=41	=41	=41	=41
8G\L	.	16gg\LL	16bb-\LL	.	.	.
.	.	16ff\	16aa\	.	.	.
8F\	.	16ee\	16gg\	.	.	.
.	.	16ff\JJ	16aa\JJ	.	.	.
!	!	!LO:LB:g=original	!	!	!	!
!	!	!LO:TX:t=P:problem=mixed beam	!LO:TX:t=P:problem=mixed beam	!	!	!
8G\	.	16gg\LL	16bb-\LL	.	.	.
.	.	16e/	16g/	.	.	.
8C\J	.	16e/	16g/	.	.	.
.	.	16e/JJ	16g/JJ	.	.	.
8F\L	.	16ff\LL	16aa\LL	.	.	.
.	.	16ee\	16gg\	.	.	.
8E\	.	16dd\	16ff\	.	.	.
.	.	16ee\JJ	16gg\JJ	.	.	.
!	!	!LO:TX:t=P:problem=mixed beam	!LO:TX:t=P:problem=mixed beam	!	!	!
8F\	.	16ff\LL	16aa\LL	.	.	.
.	.	16d/	16f/	.	.	.
8D\J	.	16d/	16f/	.	.	.
.	.	16d/JJ	16f/JJ	.	.	.
=42	=42	=42	=42	=42	=42	=42
8E\L	.	16ee\LL	16gg\LL	.	1r	.
.	.	16dd\	16ff\	.	.	.
8D\	.	16cc\	16ee\	.	.	.
.	.	16dd\JJ	16ff\JJ	.	.	.
!	!	!LO:TX:t=P:problem=mixed beam	!LO:TX:t=P:problem=mixed beam	!	!	!
8E\	.	16ee\LL	16gg\LL	.	.	.
.	.	16c/	16e/	.	.	.
8C#X\J	.	16c/	16e/	.	.	.
.	.	16c/JJ	16e/JJ	.	.	.
!	!	!	!LO:LB:g=original	!	!	!
!LO:TX:t=P:problem=mixed beam	!	!	!	!	!	!
8D\L	.	16dd\LL	16ff\LL	.	.	.
.	.	16cc#X\	16ee\	.	.	.
8G\	.	16bn\	16dd\	.	.	.
!	!	!	!LO:SIC:v:s=16cc#	!	!	!
.	.	16a\JJ	16cc\JJ	.	.	.
8A\	.	8a\L	8a\L	.	.	.
8AA/J	.	8cc#X\J	8cc\J	.	.	.
!LO:LB:g=original	!	!	!	!	!LO:PB:g=original	!
=43	=43	=43	=43	=43	=43	=43
!	!	!LO:TX:t=P:problem=mixed beam	!LO:TX:t=P:problem=mixed beam	!	!	!
4D/	.	8dd\L	8dd\L	.	8dd\	Do-
.	.	8d/J	8d/J	.	16a\	-mi-
.	.	.	.	.	16g\	-ne
4r	.	4r	4r	.	8f/	n(on)
.	.	.	.	.	8a/	Sum
16D\LL	.	2r	2r	.	8f/	di-
16E\	.	.	.	.	.	.
16F\	.	.	.	.	8d/	-gnus
16G\JJ	.	.	.	.	.	.
16A\LL	.	.	.	.	4r	.
16G\	.	.	.	.	.	.
16F\	.	.	.	.	.	.
16E\JJ	.	.	.	.	.	.
=44	=44	=44	=44	=44	=44	=44
4D/	.	2r	8dd\L	.	1r	.
.	.	.	8a\	.	.	.
4r	.	.	8dd\	.	.	.
.	.	.	8ee\J	.	.	.
4D/	.	8dd\L	8ff\L	.	.	.
.	.	8a\	8dd\	.	.	.
4r	.	8dd\	8ff\	.	.	.
.	.	8ee\J	8gg\J	.	.	.
=45	=45	=45	=45	=45	=45	=45
2r	.	8ff\L	1aat<	.	8aa\	ut
.	.	16ee\L	.	.	16gg\	in-
.	.	16dd\JJ	.	.	16ff\	-tres
.	.	8ee\L	.	.	8gg\	ut
.	.	16dd\L	.	.	16ff\	in-
.	.	16cc#X\JJ	.	.	16ee\	-tres
!LO:TX:t=P:problem=mixed beam	!	!	!	!	!	!
8D\L	.	2r	.	.	8ff\L	me-
8G\	.	.	.	.	16ee\L	.
.	.	.	.	.	16dd\JJ	.
8A\	.	.	.	.	8.cc#X\	.
8AA/J	.	.	.	.	.	.
.	.	.	.	.	16cc#\	-um
=46	=46	=46	=46	=46	=46	=46
8D\L	.	16ff\LL	16aa\LL	.	4dd\	cor
.	.	16ee\	16gg\	.	.	.
8E\	.	16dd\	16ff\	.	.	.
.	.	16ee\JJ	16gg\JJ	.	.	.
8F\	.	16ff\LL	16aa\LL	.	4r	.
.	.	16ee\	16gg\	.	.	.
8D\J	.	16dd\	16ff\	.	.	.
.	.	16ee\JJ	16gg\JJ	.	.	.
!	!	!LO:LB:g=original	!	!	!	!
8G\L	.	8gg\L	8bb-\L	.	2r	.
8F\	.	16ff\L	16aa\L	.	.	.
.	.	16ee\JJ	16gg\JJ	.	.	.
8G\	.	8gg\L	8bb-\L	.	.	.
8C\J	.	16ff\L	16aa\L	.	.	.
.	.	16ee\JJ	16gg\JJ	.	.	.
!	!	!	!	!	!LO:LB:g=original	!
=47	=47	=47	=47	=47	=47	=47
8C/L	.	16ee\LL	16gg\LL	.	00r	.
.	.	16dd\	16ff\	.	.	.
8D/	.	16cc\	16ee\	.	.	.
.	.	16dd\JJ	16ff\JJ	.	.	.
8E/	.	16ee\LL	16gg\LL	.	.	.
.	.	16dd\	16ff\	.	.	.
8C/J	.	16cc\	16ee\	.	.	.
.	.	16dd\JJ	16ff\JJ	.	.	.
!LO:LB:g=original	!	!	!	!	!	!
8F\L	.	8ff\L	8aa\L	.	.	.
8G\	.	16ee\L	16gg\L	.	.	.
.	.	16dd\JJ	16ff\JJ	.	.	.
8A\	.	8ff\L	8aa\L	.	.	.
8F\J	.	16ee\L	16gg\L	.	.	.
.	.	16dd\JJ	16ff\JJ	.	.	.
!	!	!	!LO:LB:g=original	!	!	!
=48	=48	=48	=48	=48	=48	=48
8D/L	.	16dd\LL	16ff\LL	.	.	.
.	.	16cc\	16ee\	.	.	.
8E/	.	16bn\	16dd\	.	.	.
.	.	16cc\JJ	16ee\JJ	.	.	.
8F/	.	16dd\LL	16ff\LL	.	.	.
.	.	16cc\	16ee\	.	.	.
8D/J	.	16bn\	16dd\	.	.	.
.	.	16cc\JJ	16ee\JJ	.	.	.
8C#X/L	.	8ee\L	8gg\L	.	.	.
8D/	.	16dd\L	16ff\L	.	.	.
!	!	!LO:TX:a:t=P:problem=# above	!	!	!	!
.	.	16cc#X\JJ	16ee\JJ	.	.	.
8E/	.	8ee\L	8gg\L	.	.	.
8C#/J	.	16dd\L	16ff\L	.	.	.
.	.	16cc#X\JJ	16ee\JJ	.	.	.
=49	=49	=49	=49	=49	=49	=49
8D/	.	4dd\	16dd\LL	.	.	.
.	.	.	16ff\	.	.	.
8r	.	.	16aa\	.	.	.
.	.	.	16ff\JJ	.	.	.
!	!	!	!LO:SIC:v:s=16cc#	!	!	!
8AA/	.	4cc#X\	16cc\LL	.	.	.
.	.	.	16ee\	.	.	.
8r	.	.	16aa\	.	.	.
.	.	.	16ee\JJ	.	.	.
8D/	.	4dd\	16dd\LL	.	.	.
.	.	.	16ff\	.	.	.
8r	.	.	16aa\	.	.	.
.	.	.	16ff\JJ	.	.	.
!	!	!	!LO:SIC:v:s=16cc#	!	!	!
8C#X/	.	4cc#X\	16cc\LL	.	.	.
.	.	.	16ee\	.	.	.
8r	.	.	16aa\	.	.	.
.	.	.	16ee\JJ	.	.	.
=50	=50	=50	=50	=50	=50	=50
4D/	.	16dd\LL	16dd\LL	.	.	.
.	.	16dd\	16ff\	.	.	.
.	.	16gg\	16bb-\	.	.	.
.	.	16ff\JJ	16aa\JJ	.	.	.
4r	.	16ee\LL	16gg\LL	.	.	.
.	.	16dd\	16ff\	.	.	.
.	.	16cc#X\	16ee\	.	.	.
.	.	16bn\JJ	16dd\JJ	.	.	.
!	!	!LO:LB:g=original	!LO:SIC:v:s=16cc#	!	!	!
4AA/	.	16a\LL	16cc\LL	.	.	.
!	!	!LO:TX:a:t=P:problem=# above	!	!	!	!
.	.	16cc#X\	16ee\	.	.	.
.	.	16ff\	16aa\	.	.	.
.	.	16ee\JJ	16gg\JJ	.	.	.
4r	.	16dd\LL	16ff\LL	.	.	.
.	.	16cc#X\	16ee\	.	.	.
.	.	16bn\	16dd\	.	.	.
!	!	!	!LO:SIC:v:s=16cc#	!	!	!
.	.	16a\JJ	16cc\JJ	.	.	.
!LO:LB:g=original	!	!	!	!	!	!
=51	=51	=51	=51	=51	=51	=51
16D\LL	.	16dd\LL	16dd\LL	.	0r	.
16E\	.	16cc#X\	16ee\	.	.	.
16F\	.	16dd\	16ff\	.	.	.
16G\JJ	.	16ee\JJ	16gg\JJ	.	.	.
!	!	!	!LO:LB:g=original	!	!	!
!LO:TX:t=P:problem=mixed beam	!	!	!LO:TX:t=P:problem=mixed beam	!	!	!
16A\LL	.	8ff\L	16aa\LL	.	.	.
16G\	.	.	16gg\	.	.	.
16A\	.	8cc#X\J	16aa\	.	.	.
16AA/JJ	.	.	16a/JJ	.	.	.
!LO:TX:t=P:problem=mixed beam	!	!LO:TX:t=P:problem=mixed beam	!	!	!	!
8D\L	.	8dd\L	8b-/L	.	.	.
8G\	.	8g/J	8g/	.	.	.
8A\	.	8a/L	8a/	.	.	.
8AA/J	.	8A/J	8A/J	.	.	.
=52	=52	=52	=52	=52	=52	=52
4D/	.	4d/	4d/	.	.	.
4r	.	4r	4r	.	.	.
!LO:TX:b:t=Laus Deo.	!	!	!LO:TX:b:t=SipLacek. Laus DEO	!	!	!
2r	.	2r	2r	.	.	.
==	==	==	==	==	==	==
*-	*-	*-	*-	*-	*-	*-
!!!system-decoration: s1[g1]s4
!!!RDF**kern: < = below
!!!RDF**dynam: p = "piano"
!!!RDF**dynam: f = "forte"
!!!ENC: Marta Lawrence
!!!END: 2021-01-20
!!!ENC: Andrzej Gręziak
!!!END: 2020-11-30
